Numix-GalliumOS/64/mimetypes/application-vnd.oasis.opendocument.drawing-template.svg

<svg xmlns="http://www.w3.org/2000/svg" xmlns:xlink="http://www.w3.org/1999/xlink" width="64px" height="64px" viewBox="0 0 64 64" version="1.1">
<g id="surface1">
<path style=" stroke:none;fill-rule:nonzero;fill:rgb(92.941176%,68.627451%,0.784314%);fill-opacity:1;" d="M 10.6875 0 C 9.3125 0 8 1.378906 8 2.8125 L 8 61.1875 C 8 62.539062 9.390625 64 10.6875 64 L 53.3125 64 C 54.609375 64 56 62.539062 56 61.1875 L 56 2.75 C 56 1.402344 54.597656 0 53.25 0 Z M 10.6875 0 "/>
<path style=" stroke:none;fill-rule:nonzero;fill:rgb(0%,0%,0%);fill-opacity:0.196078;" d="M 8 48 L 8 61.335938 C 8 62.632812 9.375 64 10.664062 64 L 53.335938 64 C 54.625 64 56 62.632812 56 61.335938 L 56 48 Z M 8 48 "/>
<path style=" stroke:none;fill-rule:nonzero;fill:rgb(100%,100%,100%);fill-opacity:1;" d="M 20 42 L 20 18 L 44 18 L 44 42 L 30 42 L 30 30 L 36 30 L 36 34 L 34 34 L 34 38 L 40 38 L 40 22 L 24 22 L 24 42 Z M 20 42 "/>
<path style=" stroke:none;fill-rule:nonzero;fill:rgb(100%,100%,100%);fill-opacity:1;" d="M 20.441406 56.617188 C 20.441406 57.144531 20.46875 57.636719 20.5 58.09375 C 20.558594 58.546875 20.648438 58.9375 20.777344 59.273438 C 20.917969 59.613281 21.117188 59.875 21.359375 60.070312 C 21.605469 60.265625 21.933594 60.367188 22.351562 60.367188 C 22.753906 60.367188 23.082031 60.265625 23.328125 60.070312 C 23.582031 59.875 23.78125 59.613281 23.910156 59.273438 C 24.050781 58.921875 24.148438 58.527344 24.183594 58.078125 C 24.238281 57.628906 24.265625 57.144531 24.265625 56.617188 C 24.265625 56.101562 24.238281 55.617188 24.183594 55.167969 C 24.148438 54.699219 24.050781 54.304688 23.910156 53.96875 C 23.78125 53.632812 23.589844 53.371094 23.34375 53.175781 C 23.097656 52.976562 22.773438 52.878906 22.351562 52.878906 C 21.933594 52.878906 21.605469 52.976562 21.359375 53.175781 C 21.117188 53.371094 20.917969 53.640625 20.777344 53.988281 C 20.648438 54.324219 20.558594 54.714844 20.5 55.167969 C 20.46875 55.617188 20.441406 56.101562 20.441406 56.617188 M 18.007812 56.617188 C 18.007812 54.773438 18.394531 53.378906 19.15625 52.445312 C 19.925781 51.496094 20.992188 51.027344 22.351562 51.027344 C 23.773438 51.027344 24.847656 51.496094 25.582031 52.445312 C 26.328125 53.378906 26.699219 54.773438 26.699219 56.617188 C 26.699219 58.472656 26.320312 59.867188 25.566406 60.816406 C 24.8125 61.75 23.746094 62.21875 22.371094 62.21875 C 20.960938 62.21875 19.878906 61.75 19.121094 60.816406 C 18.375 59.867188 18.007812 58.472656 18.007812 56.617188 "/>
<path style=" stroke:none;fill-rule:nonzero;fill:rgb(100%,100%,100%);fill-opacity:1;" d="M 36.472656 51.265625 L 36.472656 53.035156 L 33.300781 53.035156 L 33.300781 61.988281 L 30.878906 61.988281 L 30.878906 53.035156 L 27.707031 53.035156 L 27.707031 51.265625 L 36.472656 51.265625 "/>
<path style=" stroke:none;fill-rule:nonzero;fill:rgb(100%,100%,100%);fill-opacity:1;" d="M 43.039062 52.878906 C 42.464844 52.878906 41.980469 52.96875 41.597656 53.160156 C 41.203125 53.339844 40.882812 53.601562 40.621094 53.9375 C 40.375 54.257812 40.195312 54.652344 40.082031 55.109375 C 39.972656 55.5625 39.925781 56.070312 39.925781 56.617188 C 39.925781 57.90625 40.144531 58.847656 40.605469 59.464844 C 41.054688 60.0625 41.726562 60.367188 42.605469 60.367188 C 42.753906 60.367188 42.910156 60.359375 43.074219 60.347656 C 43.246094 60.332031 43.402344 60.316406 43.539062 60.292969 L 43.539062 56.382812 L 45.941406 56.382812 L 45.941406 61.734375 C 45.65625 61.824219 45.203125 61.933594 44.597656 62.046875 C 44 62.160156 43.269531 62.21875 42.417969 62.21875 C 41.664062 62.21875 40.980469 62.105469 40.367188 61.875 C 39.769531 61.628906 39.261719 61.277344 38.832031 60.816406 C 38.398438 60.339844 38.070312 59.757812 37.832031 59.0625 C 37.605469 58.355469 37.488281 57.546875 37.488281 56.617188 C 37.488281 55.707031 37.621094 54.90625 37.898438 54.214844 C 38.167969 53.511719 38.539062 52.921875 39.007812 52.445312 C 39.472656 51.96875 40.023438 51.617188 40.664062 51.386719 C 41.292969 51.140625 41.980469 51.027344 42.703125 51.027344 C 43.171875 51.027344 43.589844 51.058594 43.949219 51.125 C 44.328125 51.183594 44.65625 51.257812 44.925781 51.339844 C 45.195312 51.421875 45.417969 51.503906 45.589844 51.59375 C 45.769531 51.691406 45.910156 51.757812 46 51.804688 L 45.375 53.503906 C 45.089844 53.339844 44.738281 53.199219 44.320312 53.070312 C 43.910156 52.945312 43.476562 52.878906 43.039062 52.878906 "/>
</g>
</svg>

<svg xmlns="http://www.w3.org/2000/svg" viewBox="0 0 64 64">
 <g>
  <path d="m 10.688 0 c -1.375 0 -2.688 1.379 -2.688 2.813 l 0 58.38 c 0 1.352 1.391 2.813 2.688 2.813 l 42.625 0 c 1.297 0 2.688 -1.461 2.688 -2.813 l 0 -58.44 c 0 -1.348 -1.402 -2.75 -2.75 -2.75 m -42.563 0" style="fill:#ecaf02;fill-opacity:1;stroke:none;fill-rule:nonzero"/>
  <path d="m 8 48 l 0 13.336 c 0 1.297 1.375 2.664 2.664 2.664 l 42.672 0 c 1.289 0 2.664 -1.367 2.664 -2.664 l 0 -13.336 m -48 0" style="fill:#000;fill-opacity:0.196;stroke:none;fill-rule:nonzero"/>
  <path d="m 20 42 l 0 -24 l 24 0 l 0 24 l -14 0 l 0 -12 l 6 0 l 0 4 l -2 0 l 0 4 l 6 0 l 0 -16 l -16 0 l 0 20 m -4 0" style="fill:#fff;fill-opacity:1;stroke:none;fill-rule:nonzero"/>
  <path d="m 20.441 56.617 c 0 0.527 0.027 1.02 0.059 1.477 c 0.059 0.453 0.148 0.844 0.277 1.18 c 0.141 0.34 0.34 0.602 0.582 0.797 c 0.246 0.195 0.574 0.297 0.992 0.297 c 0.402 0 0.73 -0.102 0.977 -0.297 c 0.254 -0.195 0.453 -0.457 0.582 -0.797 c 0.141 -0.352 0.238 -0.746 0.273 -1.195 c 0.055 -0.449 0.082 -0.934 0.082 -1.461 c 0 -0.516 -0.027 -1 -0.082 -1.449 c -0.035 -0.469 -0.133 -0.863 -0.273 -1.199 c -0.129 -0.336 -0.32 -0.598 -0.566 -0.793 c -0.246 -0.199 -0.57 -0.297 -0.992 -0.297 c -0.418 0 -0.746 0.098 -0.992 0.297 c -0.242 0.195 -0.441 0.465 -0.582 0.813 c -0.129 0.336 -0.219 0.727 -0.277 1.18 c -0.031 0.449 -0.059 0.934 -0.059 1.449 m -2.434 0 c 0 -1.844 0.387 -3.238 1.148 -4.172 c 0.77 -0.949 1.836 -1.418 3.195 -1.418 c 1.422 0 2.496 0.469 3.23 1.418 c 0.746 0.934 1.117 2.328 1.117 4.172 c 0 1.855 -0.379 3.25 -1.133 4.199 c -0.754 0.934 -1.82 1.402 -3.195 1.402 c -1.41 0 -2.492 -0.469 -3.25 -1.402 c -0.746 -0.949 -1.113 -2.344 -1.113 -4.199" style="fill:#fff;fill-opacity:1;stroke:none;fill-rule:nonzero"/>
  <path d="m 36.473 51.27 l 0 1.77 l -3.172 0 l 0 8.953 l -2.422 0 l 0 -8.953 l -3.172 0 l 0 -1.77 l 8.766 0" style="fill:#fff;fill-opacity:1;stroke:none;fill-rule:nonzero"/>
  <path d="m 43.04 52.879 c -0.574 0 -1.059 0.09 -1.441 0.281 c -0.395 0.18 -0.715 0.441 -0.977 0.777 c -0.246 0.32 -0.426 0.715 -0.539 1.172 c -0.109 0.453 -0.156 0.961 -0.156 1.508 c 0 1.289 0.219 2.23 0.68 2.848 c 0.449 0.598 1.121 0.902 2 0.902 c 0.148 0 0.305 -0.008 0.469 -0.02 c 0.172 -0.016 0.328 -0.031 0.465 -0.055 l 0 -3.91 l 2.402 0 l 0 5.352 c -0.285 0.09 -0.738 0.199 -1.344 0.313 c -0.598 0.113 -1.328 0.172 -2.18 0.172 c -0.754 0 -1.438 -0.113 -2.051 -0.344 c -0.598 -0.246 -1.105 -0.598 -1.535 -1.059 c -0.434 -0.477 -0.762 -1.059 -1 -1.754 c -0.227 -0.707 -0.344 -1.516 -0.344 -2.445 c 0 -0.91 0.133 -1.711 0.41 -2.402 c 0.27 -0.703 0.641 -1.293 1.109 -1.77 c 0.465 -0.477 1.016 -0.828 1.656 -1.059 c 0.629 -0.246 1.316 -0.359 2.039 -0.359 c 0.469 0 0.887 0.031 1.246 0.098 c 0.379 0.059 0.707 0.133 0.977 0.215 c 0.27 0.082 0.492 0.164 0.664 0.254 c 0.18 0.098 0.32 0.164 0.41 0.211 l -0.625 1.699 c -0.285 -0.164 -0.637 -0.305 -1.055 -0.434 c -0.41 -0.125 -0.844 -0.191 -1.281 -0.191" style="fill:#fff;fill-opacity:1;stroke:none;fill-rule:nonzero"/>
 </g>
</svg>
